apps/www/public/images/logos/frameworks/redwood.svg

<svg width="62" height="61" viewBox="0 0 62 61" fill="none" xmlns="http://www.w3.org/2000/svg">
<path fill-rule="evenodd" clip-rule="evenodd" d="M22.6705 16.2784L30.1948 21.3965C30.3645 21.5093 30.5629 21.5709 30.7665 21.5744C30.9704 21.573 31.1693 21.5111 31.3383 21.3965L38.8683 16.2612C39.1608 16.0525 39.3222 15.7045 39.2929 15.3454C39.2635 14.9863 39.0479 14.6693 38.7254 14.5112L31.201 10.7988C30.9156 10.6608 30.5831 10.6608 30.2976 10.7988L22.7963 14.5112C22.4679 14.6702 22.2494 14.9933 22.2234 15.3582C22.1974 15.7232 22.368 16.0742 22.6705 16.2784ZM33.3223 23.0031C33.3229 23.3426 33.4896 23.66 33.7682 23.8523L39.8002 27.9606C40.1864 28.2259 40.703 28.1928 41.0524 27.8803L46.1124 23.3703C46.3379 23.1695 46.4631 22.8788 46.4543 22.5764C46.4455 22.274 46.3035 21.9911 46.0667 21.8039L41.2354 17.9539C40.8841 17.6759 40.3943 17.6573 40.0232 17.908L33.7682 22.1711C33.4945 22.36 33.3284 22.6698 33.3223 23.0031ZM18.3194 28.5917C18.5632 28.81 18.6886 29.1319 18.6568 29.4582C18.6251 29.7863 18.4349 30.078 18.1479 30.2385L14.5459 32.3901C14.1807 32.6077 13.7197 32.5763 13.3871 32.3113C13.0546 32.0465 12.9196 31.6029 13.0479 31.1967L14.38 27.0196C14.4846 26.6886 14.7495 26.4336 15.0833 26.3426C15.4169 26.2457 15.7767 26.3306 16.0324 26.5663L18.3194 28.5917ZM37.8562 29.0278L31.344 24.5867C30.9979 24.3547 30.5466 24.3547 30.2005 24.5867L23.6882 29.0278C23.4292 29.2065 23.2651 29.4936 23.2423 29.8081C23.2254 30.125 23.3513 30.4325 23.5853 30.6459L30.0918 36.4468C30.2795 36.6136 30.5216 36.7054 30.7723 36.705C31.0227 36.7049 31.2648 36.6131 31.4526 36.4468L37.9592 30.6459C38.1938 30.4334 38.3182 30.1246 38.2965 29.8081C38.2783 29.4936 38.1157 29.2053 37.8562 29.0278ZM20.4864 27.8803L15.4321 23.3703C15.2047 23.1645 15.0792 22.8685 15.089 22.5613C15.0945 22.2586 15.2351 21.9742 15.4721 21.7867L20.3034 17.9137C20.657 17.6365 21.1479 17.618 21.5213 17.8678L27.7706 22.131C28.0605 22.3205 28.2355 22.6443 28.2355 22.9916C28.2355 23.339 28.0605 23.6628 27.7706 23.8523L21.7442 27.9605C21.3557 28.2247 20.8384 28.1917 20.4864 27.8803ZM46.4383 34.3582L41.2925 31.2885C40.9103 31.059 40.4239 31.1055 40.0918 31.4033L33.8026 36.9976C33.5372 37.2337 33.4126 37.5908 33.4732 37.9415C33.5338 38.2921 33.7708 38.5863 34.0998 38.719L42.8248 42.242C42.9445 42.2915 43.0727 42.3169 43.2022 42.3166C43.6071 42.3178 43.9747 42.0794 44.1398 41.7084L46.8443 35.6722C47.0643 35.1945 46.8891 34.6272 46.4383 34.3582ZM47.153 27.0196L48.4852 31.1967H48.4737C48.5723 31.5091 48.5163 31.8501 48.3231 32.1142C48.1299 32.3785 47.8226 32.5342 47.496 32.5337C47.3129 32.5342 47.133 32.4846 46.9757 32.3902L43.368 30.2385C43.0868 30.0747 42.9033 29.7833 42.8763 29.4582C42.8425 29.1316 42.9682 28.8089 43.2136 28.5917L45.5006 26.5605C45.759 26.3299 46.116 26.2456 46.4498 26.3368C46.7834 26.4317 47.0473 26.6882 47.153 27.0196ZM28.0678 37.9386C28.1294 37.5894 28.006 37.2333 27.7419 36.9976L21.4527 31.4033C21.1206 31.1055 20.6341 31.059 20.252 31.2885L15.1062 34.3582C14.6606 34.6284 14.4844 35.1886 14.6945 35.6665L17.4046 41.7027C17.6292 42.2059 18.2097 42.4415 18.7197 42.2363L27.439 38.7133C27.7681 38.5817 28.0059 38.2887 28.0678 37.9386ZM31.1553 39.66L38.1536 42.483C38.4958 42.6289 38.7322 42.9496 38.7711 43.3207C38.8154 43.6964 38.648 44.0657 38.3366 44.2789L31.3326 49.1273C31.1647 49.2448 30.9655 49.3088 30.7608 49.311C30.5564 49.3078 30.3574 49.2439 30.1891 49.1273L23.1908 44.2789C22.8783 44.0662 22.7088 43.6973 22.7506 43.3207C22.7973 42.9457 23.0421 42.6254 23.3909 42.483L30.3892 39.66C30.6352 39.5622 30.9093 39.5622 31.1553 39.66Z" fill="#7E7E7E"/>
</svg>

<svg xmlns="http://www.w3.org/2000/svg" width="62" height="61" fill="none" viewBox="0 0 62 61"><path fill="#7e7e7e" fill-rule="evenodd" d="m22.67 16.278 7.525 5.119c.17.112.368.174.572.177.203-.001.402-.063.571-.178l7.53-5.135a1.023 1.023 0 0 0-.143-1.75L31.201 10.8a1.04 1.04 0 0 0-.903 0l-7.502 3.712a1.021 1.021 0 0 0-.125 1.767m10.652 6.725c0 .34.168.657.446.85L39.8 27.96c.386.265.903.232 1.252-.08l5.06-4.51a1.023 1.023 0 0 0-.045-1.567l-4.832-3.85a1.03 1.03 0 0 0-1.212-.046l-6.255 4.263c-.273.189-.44.499-.446.832M18.32 28.592c.244.218.37.54.338.866-.032.328-.222.62-.51.78l-3.601 2.152a1.02 1.02 0 0 1-1.159-.079 1.03 1.03 0 0 1-.34-1.114l1.333-4.177a1.02 1.02 0 0 1 .703-.677.99.99 0 0 1 .95.223zm19.537.436-6.512-4.441a1.03 1.03 0 0 0-1.143 0l-6.513 4.44a1.04 1.04 0 0 0-.446.781c-.017.317.11.625.343.838l6.507 5.8a1.02 1.02 0 0 0 1.36 0l6.507-5.8c.235-.213.36-.521.337-.838a1.02 1.02 0 0 0-.44-.78m-17.37-1.148-5.054-4.51a1.05 1.05 0 0 1-.343-.809c.005-.302.146-.587.383-.774l4.831-3.873a1.04 1.04 0 0 1 1.218-.046l6.25 4.263a1.028 1.028 0 0 1 0 1.721l-6.027 4.108a1.026 1.026 0 0 1-1.258-.08m25.952 6.478-5.146-3.07a1.015 1.015 0 0 0-1.2.115l-6.29 5.595a1.03 1.03 0 0 0 .298 1.721l8.725 3.523q.182.075.377.075c.405 0 .773-.238.938-.609l2.704-6.036a1.03 1.03 0 0 0-.406-1.314m.715-7.338 1.332 4.177h-.011a1.03 1.03 0 0 1-.15.917 1.023 1.023 0 0 1-1.348.276l-3.608-2.152a1 1 0 0 1-.492-.78c-.033-.326.092-.65.338-.866L45.5 26.56c.258-.231.615-.315.949-.224.333.095.597.351.703.683M28.068 37.939a1.02 1.02 0 0 0-.326-.941l-6.29-5.595a1.015 1.015 0 0 0-1.2-.114l-5.146 3.07a1.04 1.04 0 0 0-.412 1.307l2.71 6.037c.225.503.806.738 1.316.533l8.719-3.523c.33-.131.567-.424.629-.774m3.087 1.721 6.999 2.823c.342.146.578.467.617.838.044.375-.123.745-.434.958l-7.004 4.848a1 1 0 0 1-.572.184 1.03 1.03 0 0 1-.572-.184l-6.998-4.848a1.02 1.02 0 0 1-.44-.958c.046-.375.291-.696.64-.838l6.998-2.823c.246-.098.52-.098.766 0" clip-rule="evenodd"/></svg>
